X: 1
T: Byt om fot - Hambopolska
O:efter T\"app Nils Nilsson
N:Selim B. 1975
R:hambo
M:3/4
L:1/8
Z: John Chambers <jc@trillian.mit.edu>
K:D
|: "D"D2 E2 F2 | A>B A<G F>A | "G"D2 G2 A2 | "Em"B>=c B<A G>B \
| "A7"A2 A<c e>f | g2 g>f e>d | c2 c>B G>B | B2 A>G F>E |
| "D"D2 E2 F2 | A>B A<G F>A | "G"D2 G2 A2 | "Em"B>=c B<A G>B \
| "A7"A2 A<c e>f | g2 g>f e>d | c2 c<A B>c | "D"d2 d4 :|
|: "D"f2 d2 A2 | F>G F<E D2 | A,2 D<F A>F | "Em"G2 B4 \
| "A7"g2 e2 c2 | A>B A<G E2 | c2 c>B A>G | "D"F2 D4 |
| "D"f2 d2 A2 | F>G F<E D2 | A,2 D<F A>F | "G"G2 B4 \
| "A7"A>B c>d e>f | g2 g<f e>d | c2 c<A B>c | "D"d2 d4 :|

%%sep 1 1 500

